public/topics/38.svg

<svg width="250" height="250" viewBox="0 0 250 250" fill="none" xmlns="http://www.w3.org/2000/svg">
<rect width="250" height="250" rx="30" fill="#7D7F7D"/>
<path d="M79 115C89.9333 117.4 99 122.133 106.2 129.2C113.4 136.267 117 144.467 117 153.8C117 159.4 115.667 164.867 113 170.2C108.733 178.733 102.333 185.133 93.8 189.4C85.4 193.667 75.6667 195.8 64.6 195.8C57.6667 195.8 51.4667 194.533 46 192C40.5333 189.333 35.1333 185.8 29.8 181.4C27.8 179.533 26 176.867 24.4 173.4C22.9333 169.933 22.2 167.067 22.2 164.8C22.2 161.867 23 159.533 24.6 157.8C26.3333 155.933 28.6 155 31.4 155C34.2 155 36.4 155.667 38 157C39.6 158.333 41.5333 160.467 43.8 163.4C45.9333 166.2 47.8667 168.467 49.6 170.2C51.3333 171.8 53.6667 173.2 56.6 174.4C59.5333 175.6 63.2 176.2 67.6 176.2C76.5333 176.2 83.5333 174 88.6 169.6C93.6667 165.2 96.2 159 96.2 151C96.2 147.933 94.5333 144.867 91.2 141.8C87.8667 138.6 84.7333 136.333 81.8 135C80.0667 134.067 76.8667 133.133 72.2 132.2C65.9333 130.6 61.2 129.067 58 127.6C54.9333 126 53.4 123.533 53.4 120.2C53.4 117.933 54.4 115.733 56.4 113.6C58.4 111.333 61.4 108.533 65.4 105.2C69.4 101.867 72.4 99.1333 74.4 97C76.4 94.7333 77.4 92.4667 77.4 90.2C74.8667 89.5333 71.0667 89.2 66 89.2C63.7333 89.2 60.3333 89.3333 55.8 89.6C51.8 89.8667 48.7333 90 46.6 90C41.8 90 37.6667 89.2 34.2 87.6C30.8667 86 29.2 83.9333 29.2 81.4C29.2 78.6 29.4667 76.4 30 74.8C30.5333 73.0667 31.5333 72 33 71.6C33.9333 71.2 35.6 71 38 71C44.5333 71 50.2 71.2 55 71.6C60.3333 71.8667 64.4 72 67.2 72L83.8 71.8C97.4 71.8 104.2 75.0667 104.2 81.6C104.2 86.5333 101.667 92.1333 96.6 98.4C91.6667 104.533 85.8 110.067 79 115ZM201.384 128.8C209.518 132 216.051 136.267 220.984 141.6C225.918 146.933 228.384 153.067 228.384 160C228.384 162 227.918 164.533 226.984 167.6C226.184 170.533 225.051 173.067 223.584 175.2C214.784 188.8 199.251 195.6 176.984 195.6C165.384 195.6 155.318 193.267 146.784 188.6C138.251 183.8 133.984 176.667 133.984 167.2C133.984 153.733 143.251 142.2 161.784 132.6C144.451 126.2 135.784 116.733 135.784 104.2C135.784 96.6 137.918 90.2 142.184 85C146.451 79.8 152.051 75.9333 158.984 73.4C166.051 70.8667 173.718 69.6 181.984 69.6C188.118 69.6 194.384 71.0667 200.784 74C207.184 76.8 211.584 80.4667 213.984 85C216.384 90.0667 217.584 94.8 217.584 99.2C217.584 104.933 216.384 110.2 213.984 115C211.718 119.8 207.518 124.4 201.384 128.8ZM180.584 122.8C184.851 120 188.118 117.733 190.384 116C192.784 114.133 194.784 111.933 196.384 109.4C198.118 106.733 198.984 103.667 198.984 100.2C198.984 96.2 197.384 92.8667 194.184 90.2C190.984 87.5333 187.118 86.2 182.584 86.2C172.851 86.2 166.051 87.8667 162.184 91.2C158.451 94.5333 156.584 98.4667 156.584 103C156.584 106.6 157.784 109.667 160.184 112.2C162.584 114.6 165.251 116.533 168.184 118C171.251 119.333 175.384 120.933 180.584 122.8ZM207.184 158.6C207.184 156.333 205.718 153.933 202.784 151.4C199.984 148.867 196.651 146.667 192.784 144.8C188.918 142.8 185.651 141.467 182.984 140.8C178.451 142.667 173.451 145.667 167.984 149.8C162.518 153.8 159.184 156.733 157.984 158.6C156.651 160.467 155.718 162.067 155.184 163.4C154.784 164.6 154.584 166.067 154.584 167.8C154.584 169.8 155.784 171.733 158.184 173.6C160.584 175.333 163.451 176.733 166.784 177.8C170.118 178.867 172.984 179.4 175.384 179.4C184.851 179.4 192.518 177.533 198.384 173.8C204.251 169.933 207.184 164.867 207.184 158.6Z" fill="white"/>
</svg>

<svg xmlns="http://www.w3.org/2000/svg" width="250" height="250" fill="none" viewBox="0 0 250 250"><rect width="250" height="250" fill="#7d7f7d" rx="30"/><path fill="#fff" d="M79 115q16.4 3.6 27.2 14.2t10.8 24.6q0 8.4-4 16.4-6.4 12.8-19.2 19.2-12.6 6.4-29.2 6.4-10.4 0-18.6-3.8-8.2-4-16.2-10.6-3-2.8-5.4-8-2.2-5.2-2.2-8.6 0-4.4 2.4-7 2.6-2.8 6.8-2.8t6.6 2 5.8 6.4q3.2 4.2 5.8 6.8 2.6 2.4 7 4.2t11 1.8q13.4 0 21-6.6t7.6-18.6q0-4.6-5-9.2-5-4.8-9.4-6.8-2.6-1.4-9.6-2.8-9.4-2.4-14.2-4.6-4.6-2.4-4.6-7.4 0-3.4 3-6.6 3-3.4 9-8.4t9-8.2q3-3.4 3-6.8-3.8-1-11.4-1-3.4 0-10.2.4-6 .4-9.2.4-7.2 0-12.4-2.4-5-2.4-5-6.2 0-4.2.8-6.6.8-2.6 3-3.2 1.4-.6 5-.6 9.8 0 17 .6 8 .4 12.2.4l16.6-.2q20.4 0 20.4 9.8 0 7.4-7.6 16.8-7.4 9.2-17.6 16.6m122.384 13.8q12.2 4.8 19.6 12.8t7.4 18.4q0 3-1.4 7.6-1.2 4.4-3.4 7.6-13.2 20.4-46.6 20.4-17.4 0-30.2-7-12.8-7.2-12.8-21.4 0-20.2 27.8-34.6-26-9.6-26-28.4 0-11.4 6.4-19.2t16.8-11.6q10.6-3.8 23-3.8 9.2 0 18.8 4.4 9.6 4.2 13.2 11 3.6 7.6 3.6 14.2 0 8.6-3.6 15.8-3.399 7.2-12.6 13.8m-20.8-6q6.4-4.2 9.8-6.8 3.6-2.8 6-6.6 2.6-4 2.6-9.2 0-6-4.8-10t-11.6-4q-14.6 0-20.4 5-5.6 5-5.6 11.8 0 5.4 3.6 9.2 3.6 3.6 8 5.8 4.6 2 12.4 4.8m26.6 35.8q0-3.4-4.4-7.2-4.2-3.8-10-6.6-5.8-3-9.8-4-6.8 2.8-15 9-8.2 6-10 8.8-2 2.8-2.8 4.8-.6 1.8-.6 4.4 0 3 3.6 5.8 3.6 2.6 8.6 4.2t8.6 1.6q14.2 0 23-5.6 8.8-5.8 8.8-15.2"/></svg>
